apps/scalable/wireshark-alt.svg

<svg enable-background="new 0 0 64 64" height="48" viewBox="0 0 48 48" width="48" xmlns="http://www.w3.org/2000/svg" xmlns:xlink="http://www.w3.org/1999/xlink"><linearGradient id="a" gradientUnits="userSpaceOnUse" x1="24.200473684849" x2="24.111375392879" y1=".990047460002" y2="48.034596765987"><stop offset="0" stop-color="#80b3ff"/><stop offset="1" stop-color="#298fc4"/></linearGradient><linearGradient id="b" gradientUnits="userSpaceOnUse" x1="23.717162" x2="24.250978" y1="46.748524" y2="1.140137"><stop offset="0" stop-color="#f2f2f2"/><stop offset="1" stop-color="#f9f9f9"/></linearGradient><circle cx="24" cy="24" fill="url(#a)" r="23.5"/><path d="m24 0c-13.243463 0-24 10.756537-24 24s10.756537 24 24 24 24-10.756537 24-24-10.756537-24-24-24zm0 1.9199219c12.205818 0 22.080078 9.8742601 22.080078 22.0800781 0 2.487579-.415464 4.875429-1.171875 7.105469h-11.009765c-.383001-.855-4.695344-10.719.472656-18.5.133-.234.16775-.52325.09375-.78125-.035-.16-.11275-.3125-.21875-.4375-.199-.211-.49225-.329453-.78125-.314453h-.001953v.001953c-9.316.141-14.529297 5.453-17.279297 10.625-2.516 4.734-2.896703 8.64825-2.970703 9.40625h-10.1210941c-.7564111-2.23004-1.171875-4.61789-1.171875-7.105469 0-12.205818 9.8742601-22.0800781 22.0800781-22.0800781zm8.023438 11.3710941c-4.461 8.93.222656 19.25.222656 19.25.035.043.078.086.125.125.172.254.469343.423453.777344.439453h10.96875c-3.465115 7.654201-11.160059 12.974609-20.117188 12.974609s-16.6520734-5.320408-20.1171875-12.974609h10.1113285c.285 0 .563-.12875.75-.34375.105-.125.18375-.277453.21875-.439453.004-.043.004-.086 0-.125 0 0 .469-4.738 3-9.5 2.363-4.441 6.564547-8.73425 14.060547-9.40625z" fill="url(#b)"/></svg>

<?xml version="1.0" encoding="UTF-8" standalone="no"?>
<svg
   xmlns:dc="http://purl.org/dc/elements/1.1/"
   xmlns:cc="http://creativecommons.org/ns#"
   xmlns:rdf="http://www.w3.org/1999/02/22-rdf-syntax-ns#"
   xmlns:svg="http://www.w3.org/2000/svg"
   xmlns="http://www.w3.org/2000/svg"
   xmlns:xlink="http://www.w3.org/1999/xlink"
   xmlns:sodipodi="http://sodipodi.sourceforge.net/DTD/sodipodi-0.dtd"
   xmlns:inkscape="http://www.inkscape.org/namespaces/inkscape"
   height="48"
   width="48"
   sodipodi:docname="wireshark-alt.svg"
   inkscape:version="0.91 r13725"
   version="1.1"
   id="svg2"
   enable-background="new 0 0 64 64"
   viewBox="0 0 48 48">
  <sodipodi:namedview
     inkscape:current-layer="svg2"
     inkscape:cy="20.525393"
     inkscape:cx="13.590493"
     inkscape:zoom="11.313709"
     showgrid="false"
     id="namedview84"
     inkscape:window-height="480"
     inkscape:window-width="640"
     inkscape:pageshadow="2"
     inkscape:pageopacity="0"
     guidetolerance="10"
     gridtolerance="10"
     objecttolerance="10"
     borderopacity="1"
     bordercolor="#666666"
     pagecolor="#ffffff" />
  <metadata
     id="metadata88">
    <rdf:RDF>
      <cc:Work
         rdf:about="">
        <dc:format>image/svg+xml</dc:format>
        <dc:type
           rdf:resource="http://purl.org/dc/dcmitype/StillImage" />
        <dc:title></dc:title>
      </cc:Work>
    </rdf:RDF>
  </metadata>
  <defs
     id="defs86">
    <linearGradient
       id="linearGradient3549"
       inkscape:collect="always">
      <stop
         id="stop3551"
         offset="0"
         style="stop-color:#80b3ff;stop-opacity:1" />
      <stop
         id="stop3553"
         offset="1"
         style="stop-color:#298fc4;stop-opacity:1" />
    </linearGradient>
    <linearGradient
       id="linearGradient3527"
       inkscape:collect="always">
      <stop
         id="stop3529"
         offset="0"
         style="stop-color:#f2f2f2;stop-opacity:1" />
      <stop
         id="stop3531"
         offset="1"
         style="stop-color:#f9f9f9;stop-opacity:1" />
    </linearGradient>
    <linearGradient
       id="linearGradient3764"
       x1="1"
       x2="47"
       gradientUnits="userSpaceOnUse"
       gradientTransform="matrix(0,-1,1,0,-1.5e-6,47.999998)">
      <stop
         style="stop-color:#2788bb;stop-opacity:1"
         id="stop3319" />
      <stop
         offset="1"
         style="stop-color:#2b94cb;stop-opacity:1"
         id="stop3321" />
    </linearGradient>
    <clipPath
       id="clipPath3432"
       clipPathUnits="userSpaceOnUse">
      <circle
         style="opacity:1;fill:#298fc4;fill-opacity:1;fill-rule:nonzero;stroke:none;stroke-width:2;stroke-linecap:butt;stroke-linejoin:round;stroke-miterlimit:4;stroke-dasharray:none;stroke-dashoffset:0;stroke-opacity:1"
         id="circle3434"
         cx="24"
         cy="24"
         r="24" />
    </clipPath>
    <linearGradient
       gradientTransform="matrix(0.97916667,0,0,0.97916667,0.5,0.5)"
       gradientUnits="userSpaceOnUse"
       y2="48.545971"
       x2="24.113745"
       y1="0.50047398"
       x1="24.204739"
       id="linearGradient3555"
       xlink:href="#linearGradient3549"
       inkscape:collect="always" />
    <clipPath
       id="clipPath3850"
       clipPathUnits="userSpaceOnUse">
      <circle
         style="opacity:1;fill:url(#linearGradient3854);fill-opacity:1;fill-rule:nonzero;stroke:none;stroke-width:2;stroke-linecap:butt;stroke-linejoin:round;stroke-miterlimit:4;stroke-dasharray:none;stroke-dashoffset:0;stroke-opacity:1"
         id="circle3852"
         cx="24"
         cy="24"
         r="23.5" />
    </clipPath>
    <linearGradient
       y2="48.545971"
       x2="24.113745"
       y1="0.50047398"
       x1="24.204739"
       gradientTransform="matrix(0.97916667,0,0,0.97916667,0.5,0.5)"
       gradientUnits="userSpaceOnUse"
       id="linearGradient3854"
       xlink:href="#linearGradient3549"
       inkscape:collect="always" />
    <clipPath
       clipPathUnits="userSpaceOnUse"
       id="clipPath3998">
      <circle
         style="opacity:1;fill:url(#linearGradient4002);fill-opacity:1;fill-rule:nonzero;stroke:none;stroke-width:2;stroke-linecap:butt;stroke-linejoin:round;stroke-miterlimit:4;stroke-dasharray:none;stroke-dashoffset:0;stroke-opacity:1"
         id="circle4000"
         cx="24"
         cy="24"
         r="23.5" />
    </clipPath>
    <linearGradient
       inkscape:collect="always"
       xlink:href="#linearGradient3549"
       id="linearGradient4002"
       gradientUnits="userSpaceOnUse"
       gradientTransform="matrix(0.97916667,0,0,0.97916667,0.5,0.5)"
       x1="24.204739"
       y1="0.50047398"
       x2="24.113745"
       y2="48.545971" />
    <clipPath
       id="clipPath4374"
       clipPathUnits="userSpaceOnUse">
      <circle
         style="opacity:1;fill:url(#linearGradient4378);fill-opacity:1;fill-rule:nonzero;stroke:none;stroke-width:2;stroke-linecap:butt;stroke-linejoin:round;stroke-miterlimit:4;stroke-dasharray:none;stroke-dashoffset:0;stroke-opacity:1"
         id="circle4376"
         cx="24"
         cy="24"
         r="23.5" />
    </clipPath>
    <linearGradient
       y2="48.545971"
       x2="24.113745"
       y1="0.50047398"
       x1="24.204739"
       gradientTransform="matrix(0.97916667,0,0,0.97916667,0.5,0.5)"
       gradientUnits="userSpaceOnUse"
       id="linearGradient4378"
       xlink:href="#linearGradient3549"
       inkscape:collect="always" />
    <clipPath
       clipPathUnits="userSpaceOnUse"
       id="clipPath4609">
      <circle
         style="opacity:1;fill:url(#linearGradient4613);fill-opacity:1;fill-rule:nonzero;stroke:none;stroke-width:2;stroke-linecap:butt;stroke-linejoin:round;stroke-miterlimit:4;stroke-dasharray:none;stroke-dashoffset:0;stroke-opacity:1"
         id="circle4611"
         cx="24"
         cy="24"
         r="23.5" />
    </clipPath>
    <linearGradient
       inkscape:collect="always"
       xlink:href="#linearGradient3549"
       id="linearGradient4613"
       gradientUnits="userSpaceOnUse"
       gradientTransform="matrix(0.97916667,0,0,0.97916667,0.5,0.5)"
       x1="24.204739"
       y1="0.50047398"
       x2="24.113745"
       y2="48.545971" />
    <linearGradient
       gradientTransform="matrix(0,-1,1,0,-55.876864,46.397709)"
       gradientUnits="userSpaceOnUse"
       x2="47"
       x1="1"
       id="linearGradient3764-3">
      <stop
         id="stop3262"
         style="stop-color:#2788bb;stop-opacity:1" />
      <stop
         id="stop3264"
         style="stop-color:#2b94cb;stop-opacity:1"
         offset="1" />
    </linearGradient>
    <linearGradient
       inkscape:collect="always"
       xlink:href="#linearGradient3527"
       id="linearGradient3359"
       x1="23.186832"
       y1="46.748524"
       x2="23.720648"
       y2="1.1401373"
       gradientUnits="userSpaceOnUse"
       gradientTransform="translate(0.53033006,0)" />
  </defs>
  <circle
     r="23.5"
     cy="24"
     cx="24"
     id="path3312"
     style="opacity:1;fill:url(#linearGradient3555);fill-opacity:1;fill-rule:nonzero;stroke:none;stroke-width:2;stroke-linecap:butt;stroke-linejoin:round;stroke-miterlimit:4;stroke-dasharray:none;stroke-dashoffset:0;stroke-opacity:1" />
  <path
     style="fill:url(#linearGradient3359);fill-opacity:1"
     d="M 24 0 C 10.756537 0 0 10.756537 0 24 C 0 37.243463 10.756537 48 24 48 C 37.243463 48 48 37.243463 48 24 C 48 10.756537 37.243463 0 24 0 z M 24 1.9199219 C 36.205818 1.9199219 46.080078 11.794182 46.080078 24 C 46.080078 26.487579 45.664614 28.875429 44.908203 31.105469 L 33.898438 31.105469 C 33.515437 30.250469 29.203094 20.386469 34.371094 12.605469 C 34.504094 12.371469 34.538844 12.082219 34.464844 11.824219 C 34.429844 11.664219 34.352094 11.511719 34.246094 11.386719 C 34.047094 11.175719 33.753844 11.057266 33.464844 11.072266 L 33.462891 11.072266 L 33.462891 11.074219 C 24.146891 11.215219 18.933594 16.527219 16.183594 21.699219 C 13.667594 26.433219 13.286891 30.347469 13.212891 31.105469 L 3.0917969 31.105469 C 2.3353858 28.875429 1.9199219 26.487579 1.9199219 24 C 1.9199219 11.794182 11.794182 1.9199219 24 1.9199219 z M 32.023438 13.291016 C 27.562438 22.221016 32.246094 32.541016 32.246094 32.541016 C 32.281094 32.584016 32.324094 32.627016 32.371094 32.666016 C 32.543094 32.920016 32.840437 33.089469 33.148438 33.105469 L 44.117188 33.105469 C 40.652073 40.75967 32.957129 46.080078 24 46.080078 C 15.042871 46.080078 7.3479266 40.75967 3.8828125 33.105469 L 13.994141 33.105469 C 14.279141 33.105469 14.557141 32.976719 14.744141 32.761719 C 14.849141 32.636719 14.927891 32.484266 14.962891 32.322266 C 14.966891 32.279266 14.966891 32.236266 14.962891 32.197266 C 14.962891 32.197266 15.431891 27.459266 17.962891 22.697266 C 20.325891 18.256266 24.527438 13.963016 32.023438 13.291016 z "
     id="path3280" />
</svg>
